usr/share/icons/biglinux-icons-material-dark/16/actions/debug-step-instruction.svg

<svg xmlns="http://www.w3.org/2000/svg" viewBox="0 0 16 16">
  <defs id="defs3051">
    <style type="text/css" id="current-color-scheme">
      .ColorScheme-Text {
        color:#dedede;
      }
      .ColorScheme-NeutralText {
        color:#f67400;
      }
      </style>
  </defs>
 <path style="fill:currentColor;fill-opacity:1;stroke:none" 
     d="M 2 2 L 2 14 L 14 14 L 14 2 L 11 2 L 11 5 L 13 5 L 13 13 L 3 13 L 3 5 L 5 5 L 5 2 L 3 2 L 2 2 z M 6.4296875 6 C 5.3636875 6 4.9160156 6.3519062 4.9160156 7.2539062 C 4.9160156 7.2539062 4.8917656 7.841 4.8847656 8 C 4.8387656 8.369 4.7096406 8.6777344 4.3066406 8.6777344 L 4.0019531 8.6777344 L 4.0019531 9.3222656 L 4.3066406 9.3222656 C 4.8956406 9.3222656 4.9160156 9.966437 4.9160156 10.523438 C 4.9110156 10.697437 4.9295938 10.892953 4.9335938 11.001953 C 5.0165938 11.713953 5.4716875 12.001953 6.4296875 12.001953 L 6.4296875 11.408203 C 5.9796875 11.408203 5.8237656 11.291953 5.7597656 11.001953 C 5.7257656 10.885953 5.7229844 10.487875 5.7089844 10.296875 C 5.7089844 9.881875 5.5853281 9.2618594 4.9863281 9.0058594 C 5.4593281 8.8028594 5.6305937 8.3778594 5.6835938 8.0058594 C 5.7075938 7.9018594 5.7010312 7.7821719 5.7070312 7.7011719 C 5.7070312 6.8351719 5.7186875 6.5976564 6.4296875 6.5976562 L 6.4296875 6 z M 7.5 6 L 7.5 7 L 8.5 7 L 8.5 6 L 7.5 6 z M 9.5800781 6 L 9.5800781 6.5976562 C 10.291078 6.5976562 10.302734 6.8351719 10.302734 7.7011719 C 10.308734 7.7821719 10.302172 7.9018594 10.326172 8.0058594 C 10.379172 8.3778594 10.550435 8.8028594 11.023438 9.0058594 C 10.424436 9.2618594 10.300781 9.881875 10.300781 10.296875 C 10.286781 10.487875 10.284 10.885953 10.25 11.001953 C 10.186 11.291953 10.030078 11.408203 9.5800781 11.408203 L 9.5800781 12.001953 C 10.538078 12.001953 10.993172 11.713953 11.076172 11.001953 C 11.080172 10.892953 11.09875 10.697437 11.09375 10.523438 C 11.09375 9.9664365 11.114125 9.3222656 11.703125 9.3222656 L 12.007812 9.3222656 L 12.007812 8.6777344 L 11.703125 8.6777344 C 11.300125 8.6777344 11.171 8.369 11.125 8 C 11.118 7.841 11.09375 7.2539062 11.09375 7.2539062 C 11.09375 6.3519062 10.646078 6 9.5800781 6 z M 7.5 8 L 7.5 12 L 8.5 12 L 8.5 8 L 7.5 8 z "
     class="ColorScheme-Text"
     />
  <path
       style="fill:currentColor;fill-opacity:1;stroke:none" 
     class="ColorScheme-NeutralText"
   d="M 10,2 8,5 6,2 Z" />
</svg>

<svg xmlns="http://www.w3.org/2000/svg" viewBox="0 0 16 16">
<defs id="defs3051">
<style id="current-color-scheme" type="text/css">
.ColorScheme-Text{color:#dedede}.ColorScheme-NeutralText{color:#f67400}
</style>
</defs>
<path d="M2 2v12h12V2h-3v3h2v8H3V5h2V2zm4.43 4c-1.066 0-1.514.352-1.514 1.254L4.885 8c-.046.369-.175.678-.578.678h-.305v.644h.305c.589 0 .609.644.609 1.201-.005.174.014.37.018.479.083.712.538 1 1.496 1v-.594c-.45 0-.606-.116-.67-.406-.034-.116-.037-.514-.051-.705 0-.415-.124-1.035-.723-1.291.473-.203.645-.628.698-1 .024-.104.017-.224.023-.305 0-.866.012-1.103.723-1.103zM7.5 6v1h1V6zm2.08 0v.598c.711 0 .723.237.723 1.103.006.081 0 .2.023.305.053.372.224.797.697 1-.599.256-.722.876-.722 1.29-.014.192-.017.59-.051.706-.064.29-.22.406-.67.406v.594c.958 0 1.413-.288 1.496-1 .004-.109.023-.305.018-.479 0-.557.02-1.2.61-1.2h.304v-.645h-.305c-.403 0-.532-.309-.578-.678l-.031-.746C11.094 6.352 10.646 6 9.58 6M7.5 8v4h1V8z" class="ColorScheme-Text" style="fill:currentColor;fill-opacity:1;stroke:none"/>
<path d="M10 2 8 5 6 2Z" class="ColorScheme-NeutralText" style="fill:currentColor;fill-opacity:1;stroke:none"/>
</svg>
